shared/images/iconfont/kb-iconfont-nav-search-24.svg

<?xml version="1.0" encoding="UTF-8"?>
<svg width="24px" height="24px" viewBox="0 0 24 24" version="1.1" xmlns="http://www.w3.org/2000/svg" xmlns:xlink="http://www.w3.org/1999/xlink">
    <!-- Generator: sketchtool 41.2 (35397) - http://www.bohemiancoding.com/sketch -->
    <title>B3BC6043-377B-4868-8A7E-EFE3BDF35647</title>
    <desc>Created with sketchtool.</desc>
    <defs></defs>
    <g id="Icons" stroke="none" stroke-width="1" fill="none" fill-rule="evenodd">
        <g id="Style-guide---Desktop---Icons-2" transform="translate(-161.000000, -1174.000000)">
            <g id="kb-iconfont-nav-search-24" transform="translate(161.000000, 1174.000000)">
                <g id="icon">
                    <rect id="icon-area" fill="#D8D8D8" opacity="0" x="0" y="0" width="24" height="24"></rect>
                    <path d="M10.4759474,6.09150178 C12.8924421,6.09150178 14.8582413,8.03253369 14.8582413,10.4184008 C14.8582413,12.8039721 12.8924421,14.7451519 10.4759474,14.7451519 C8.05945271,14.7451519 6.09350362,12.8039721 6.09350362,10.4184008 C6.09350362,8.03253369 8.05945271,6.09150178 10.4759474,6.09150178 M19.8438948,18.5184591 L15.5992926,14.3050467 C15.7189801,14.1445464 15.8027776,14.0318275 15.8612409,13.9526196 L15.8683865,13.9429992 C15.9161315,13.8809476 15.9622526,13.8185754 16.0070745,13.7549204 L16.0111345,13.7494689 L16.0109721,13.7494689 C17.6737674,11.3899066 17.3056107,8.05275183 15.106414,5.88158897 C13.8775467,4.66813645 12.2436583,4 10.5059974,4 C8.76833644,4 7.13477278,4.66813645 5.90574307,5.88142863 C4.67687577,7.09472081 4,8.70790075 4,10.4238586 C4,12.1396561 4.67671337,13.7529964 5.90574307,14.9661282 C7.13120001,16.1762136 8.76102852,16.8425863 10.4947919,16.8425863 C11.5341405,16.8425863 12.5697539,16.5942197 13.4962357,16.121217 C13.600333,16.0633343 13.909052,15.886319 14.1568717,15.6884595 L18.4677323,19.8470357 C18.4935536,19.8725298 18.6327289,20 18.8350771,20 C18.9237465,20 19.0562635,19.9741853 19.1843957,19.8512046 L19.3997357,19.6459695 C19.5642451,19.489638 19.7371992,19.3251293 19.861109,19.2029503 C20.1019456,18.9650058 19.9851813,18.6658115 19.8438948,18.5184591" id="Fill-1" fill="#000000"></path>
                </g>
            </g>
        </g>
    </g>
</svg>

<svg xmlns="http://www.w3.org/2000/svg" width="24" height="24" viewBox="0 0 24 24">
    <path fill="#000" fill-rule="evenodd" d="M10.476 6.092c2.416 0 4.382 1.94 4.382 4.326 0 2.386-1.966 4.327-4.382 4.327-2.417 0-4.382-1.941-4.382-4.327 0-2.385 1.965-4.326 4.382-4.326m9.368 12.426l-4.245-4.213.262-.352.007-.01a5.51 5.51 0 0 0 .14-.188l.003-.006c1.663-2.36 1.295-5.696-.905-7.867A6.505 6.505 0 0 0 10.506 4a6.506 6.506 0 0 0-4.6 1.881A6.341 6.341 0 0 0 4 10.424a6.34 6.34 0 0 0 1.906 4.542 6.489 6.489 0 0 0 4.589 1.877c1.04 0 2.075-.249 3.001-.722.104-.058.413-.235.66-.433l4.312 4.159a.55.55 0 0 0 .367.153.498.498 0 0 0 .35-.149l.215-.205c.164-.156.337-.32.461-.443.24-.238.124-.537-.017-.685"/>
</svg>
